X: 1
T: the Wise Maid
T: All Around the World
R: reel
Z: 2006 John Chambers <jc:trillian.mit.edu>
M: C|
L: 1/8
K: D
DE |\
"D"F3G FEDE | FAAB AFED | "D"d2e{f}g "A7"fdec | "D(G)" dBAF "A7"BEEG | "D"F3G FEDE |
FAAB AFED | "D"d2e{f}g "A7"fdec | "G"dB"A7"AG "D"FD :: FA | "D"d2AG FDFA | dfaf "A7"gfeg |
"D"fAdf "A" eAce | "G(E7)"dfed "A"cAAc | "G"BDGB "D"ADFA | dfaf "A"gfed | "G"Bd"A"ce "D" dBAG | "A7"FAEG "D"FD :|
